arrow-left-right-bold.svg

<svg fill="currentColor" viewBox="0 0 24 24"><path d="M8 14v4l-6-6 6-6v4h8V6l6 6-6 6v-4z"/></svg>

<svg  viewBox="0 0 24 24" fill="currentColor"><path  d="M8,14V18L2,12L8,6V10H16V6L22,12L16,18V14H8Z"/></svg>
